X:75
T:Lord Stranger's Hornpipe
A:Wyresdale, Lancashire
B:E and J Winder, 1835-41
L:1/8
M:3/2
O:England
Z:Richard Robinson 
%%RRN:I'm not entirely sure about the c# in the key-sig
%%TUNEURL: http://www.leeds.ac.uk/music/Info/RRTuneBk/gettune/00000601.html
%%ID:00000601
K:D
AG|\
F2FG A2Ac d2d2 | F2FG A2AB cBAG | \
F2FG A2AB c2c2 | E2EF G2AB cBAG :|
|:F2DF AFdF AFdA | F2DF A2GF EFGE | \
F2DF AFdF AFdF | E2EF G2AB cBAG :|
|:d2f2 d2f2 dcBA | d2f2 d2f2 dcBA |\
B2g2 B2g2 BcdB | A2a2 A2a2 dcBA :|
|:agfe defg a2ab | agfe defd g2ga | \
gfed BcdB fgaf | edcB Aaed c2BA :|
|:d2fd fdfd c2(BA) | d2fd fdfd dcBA | \
B2gB gBgB BcdB   | A2aA aAaA dcBA :|
|:dAFA dAFA d2(fe) | dAFA dAFA d2(dc) |\
BAGF EFGE ABcA   | edcB Aaed c2BA :|
|:DEFG ABAG A2F2 | DEFG A2(GF) EFGE |\
DEFG ABAG A2A,2 | C2E2 C2F2 EFGE :|
|:DEFE DEFE D2A,2 | DEFE DEFG A2(GF) |\
DEFE DEFE D2A,2 | C2E2 C2F2 EFGE :|
%%newpage
%page 7
